images/icon6.svg

<svg height="66" viewBox="0 0 66 66" width="66" xmlns="http://www.w3.org/2000/svg" xmlns:xlink="http://www.w3.org/1999/xlink"><mask id="a" fill="#fff"><path d="m.00003041.15137615h65.84789589v65.54581105h-65.84789589z" fill="none"/></mask><mask id="b" fill="#fff"><path d="m0 65.8486239h65.8479263v-65.54587161h-65.8479263z" fill="none"/></mask><g fill="none" fill-rule="evenodd" transform=""><path d="m63.4958627 34.4928716c0 17.026789-13.8663871 30.8298715-30.9716406 30.8298715-17.1052534 0-30.97194468-13.8030825-30.97194468-30.8298715s13.86669128-30.8298716 30.97194468-30.8298716c17.1052535 0 30.9716406 13.8030826 30.9716406 30.8298716" fill="#5cd8ff"/><path d="m32.9239935 64.0320495c-17.2320829 0-31.25115203-13.9550642-31.25115203-31.1077981 0-17.152734 14.01906913-31.10779819 31.25115203-31.10779819 17.2317789 0 31.2511521 13.95506419 31.2511521 31.10779819 0 17.1527339-14.0193732 31.1077981-31.2511521 31.1077981m0-63.8807339c-18.154258 0-32.92396309 14.7019541-32.92396309 32.7729358 0 18.0709816 14.76970509 32.7729358 32.92396309 32.7729358 18.1542581 0 32.9239632-14.7019542 32.9239632-32.7729358 0-18.0709817-14.7697051-32.7729358-32.9239632-32.7729358" fill="#000" mask="url(#a)" transform="translate(0 .151376)"/><g fill="#fff"><path d="m33.228141 44.4288385c-6.1310046 0-11.1013825-4.9472752-11.1013825-11.0504587 0-6.1028807 4.9703779-11.0504587 11.1013825-11.0504587s11.1013825 4.947578 11.1013825 11.0504587c0 6.1031835-4.9703779 11.0504587-11.1013825 11.0504587m.1520737-34.81651373c-13.270258 0-24.02764972 10.70834863-24.02764972 23.91743123 0 13.2093853 10.75739172 23.9174312 24.02764972 23.9174312 13.2702581 0 24.0276498-10.7080459 24.0276498-23.9174312 0-13.2090826-10.7573917-23.91743123-24.0276498-23.91743123"/><path d="m20.6059908 45.0344037h24.9400921v-24.8256881h-24.9400921z" mask="url(#b)"/><path d="m55.5108055 34.1352606c0-.3714771-.2667373-.6366881-.6399262-.6366881-.3728848 0-.639318.265211-.639318.6366881 0 11.8327706-9.6484701 21.4369816-21.5357696 21.4369816-.3728848 0-.6396221.265211-.6396221.6366881 0 .371477.2667373.636688.6396221.636688 12.5804516 0 22.8150138-10.1879174 22.8150138-22.7103577m-22.8150138 9.4979449c5.2772627 0 9.5417143-4.2448899 9.5417143-9.4979449 0-5.2530551-4.2644516-9.497945-9.5417143-9.497945s-9.5417143 4.2448899-9.5417143 9.497945c0 5.253055 4.2644516 9.4979449 9.5417143 9.4979449m-12.046977-9.4979449c0-6.6326973 5.3837143-11.9917156 12.046977-11.9917156.3731889 0 .6399263-.2655138.6399263-.6366881 0-.3714771-.2667374-.6366881-.6399263-.6366881-7.3561106 0-13.3265253 5.9427248-13.3265253 13.2650918 0 .371477.2667373.6369908.6396221.6369908.3199631 0 .6399262-.2655138.6399262-.6369908m-3.1451889 0c0-8.3305322 6.8232442-15.1224771 15.1921659-15.1224771.3731889 0 .6399263-.265211.6399263-.6366881s-.2667374-.6366881-.6399263-.6366881c-9.1149954 0-16.4714101 7.3756514-16.4714101 16.3958533 0 .371477.2664331.6369908.6396221.6369908.3199631 0 .6396221-.2655138.6396221-.6369908m15.1921659-18.3062202c.3731889 0 .6399263-.265211.6399263-.6366881 0-.3711743-.2667374-.6366881-.6399263-.6366881-10.8209585 0-19.6165991 8.7552936-19.6165991 19.5266147 0 .3714771.2667374.6366881.6399263.6366881.3728848 0 .6396221-.265211.6396221-.6366881-.0535299-10.0286697 8.2092443-18.2532385 18.3370507-18.2532385m-21.5354654 18.3062202c0-11.8324679 9.6481659-21.4366789 21.5354654-21.4366789.3731889 0 .6399263-.2655138.6399263-.6366881 0-.3714771-.2667374-.6366881-.6399263-.6366881-12.5801475 0-22.81470967 10.1876147-22.81470967 22.7100551 0 .371477.26643317.6369908.63962207.6369908.373189 0 .6396222-.2655138.6396222-.6369908m33.5827465 0c0 6.6326972-5.3837143 11.9920183-12.0472811 11.9920183-.3728848 0-.6396221.265211-.6396221.6366881 0 .3711743.2667373.636688.6396221.636688 7.3564148 0 13.3265254-5.9427247 13.3265254-13.2653944 0-.3714771-.2664332-.6366881-.6396222-.6366881-.3199631 0-.6396221.265211-.6396221.6366881m3.145189 0c0 8.3308348-6.8232443 15.122477-15.1924701 15.122477-.3728848 0-.6396221.2655138-.6396221.6366881 0 .3714771.2667373.6369908.6396221.6369908 9.1152995 0 16.4717143-7.3756514 16.4717143-16.3961559 0-.3714771-.2664332-.6366881-.6399263-.6366881-.319659 0-.6393179.265211-.6393179.6366881m-15.1924701 18.3062201c-.3728848 0-.6396221.265211-.6396221.6366881s.2667373.6366881.6396221.6366881c10.8209585 0 19.6165991-8.7549908 19.6165991-19.5266147 0-.3711743-.2667373-.6366881-.6396221-.6366881-.373189 0-.6399263.2655138-.6399263.6366881.05353 10.0286697-8.2089401 18.2532385-18.3370507 18.2532385m25.3202765-18.3062201c0 13.9020825-11.354129 25.2041284-25.3202765 25.2041284s-25.32027649-11.3020459-25.32027649-25.2041284c0-13.9020826 11.35412899-25.20412849 25.32027649-25.20412849s25.3202765 11.30204589 25.3202765 25.20412849m-25.3202765 2.3348256c-1.2792442 0-2.3455852-1.0611468-2.3455852-2.3348256 0-1.2733762 1.066341-2.334523 2.3455852-2.334523s2.3455853 1.0611468 2.3455853 2.334523c0 1.2736788-1.0663411 2.3348256-2.3455853 2.3348256" mask="url(#b)"/></g><path d="m56.1191005 33.529756c0-.3714771-.2667374-.6366881-.6399263-.6366881-.3728848 0-.639318.265211-.639318.6366881 0 11.8327706-9.64847 21.4369816-21.5357696 21.4369816-.3728848 0-.6396221.265211-.6396221.6366881s.2667373.6366881.6396221.6366881c12.5804516 0 22.8150139-10.1879175 22.8150139-22.7103578m-22.8150139 9.4979449c5.2772627 0 9.5417143-4.2448899 9.5417143-9.4979449 0-5.2530551-4.2644516-9.497945-9.5417143-9.497945-5.2772626 0-9.5417142 4.2448899-9.5417142 9.497945 0 5.253055 4.2644516 9.4979449 9.5417142 9.4979449m-12.0469769-9.4979449c0-6.6326973 5.3837143-11.9917156 12.0469769-11.9917156.373189 0 .6399263-.2655138.6399263-.6366881 0-.3714771-.2667373-.6366881-.6399263-.6366881-7.3561106 0-13.3262212 5.9427248-13.3262212 13.2650918 0 .371477.2664332.6369908.639318.6369908.3199631 0 .6399263-.2655138.6399263-.6369908m-3.145189 0c0-8.3305321 6.8232443-15.1224771 15.1921659-15.1224771.373189 0 .6399263-.265211.6399263-.6366881 0-.371477-.2667373-.636688-.6399263-.636688-9.1149954 0-16.4714101 7.3756513-16.4714101 16.3958532 0 .371477.2664332.6369908.6396221.6369908.3199632 0 .6396221-.2655138.6396221-.6369908m15.1921659-18.3062202c.373189 0 .6399263-.265211.6399263-.6366881 0-.3711743-.2667373-.6366881-.6399263-.6366881-10.8209585 0-19.616599 8.7552936-19.616599 19.5266147 0 .3714771.2667373.6366881.6399262.6366881.3728848 0 .6396221-.265211.6396221-.6366881-.0535299-10.0286697 8.2092443-18.2532385 18.3370507-18.2532385m-21.5354654 18.3062202c0-11.8324679 9.6481659-21.4366789 21.5354654-21.4366789.373189 0 .6399263-.2655138.6399263-.6366881 0-.3714771-.2667373-.6366881-.6399263-.6366881-12.5801474 0-22.8147096 10.1876147-22.8147096 22.7100551 0 .371477.2664331.6369908.6396221.6369908.3731889 0 .6396221-.2655138.6396221-.6369908m33.5827465 0c0 6.6326972-5.3837142 11.9920183-12.0472811 11.9920183-.3728848 0-.6396221.265211-.6396221.6366881 0 .3711743.2667373.6366881.6396221.6366881 7.3564148 0 13.3265254-5.9427248 13.3265254-13.2653945 0-.3714771-.2664332-.6366881-.6396221-.6366881-.3199632 0-.6396222.265211-.6396222.6366881m3.145189 0c0 8.3308348-6.8232443 15.122477-15.1924701 15.122477-.3728848 0-.6396221.2655138-.6396221.6366881 0 .3714771.2667373.6369908.6396221.6369908 9.1152996 0 16.4717143-7.3756513 16.4717143-16.3961559 0-.3714771-.2664332-.6366881-.6399262-.6366881-.319659 0-.639318.265211-.639318.6366881m-15.1924701 18.3062201c-.3728848 0-.6396221.2652111-.6396221.6366881 0 .3714771.2667373.6366881.6396221.6366881 10.8209586 0 19.6165991-8.7549908 19.6165991-19.5266147 0-.3711743-.2667373-.6366881-.6396221-.6366881-.3731889 0-.6399263.2655138-.6399263.6366881.05353 10.0286697-8.2089401 18.2532385-18.3370507 18.2532385m25.3202765-18.3062201c0 13.9020825-11.354129 25.2041284-25.3202765 25.2041284-13.9661474 0-25.32027646-11.3020459-25.32027646-25.2041284 0-13.9020826 11.35412906-25.20412848 25.32027646-25.20412848 13.9661475 0 25.3202765 11.30204588 25.3202765 25.20412848m-25.3202765 2.3348257c-1.2792442 0-2.3455852-1.0611468-2.3455852-2.3348257 0-1.2733762 1.066341-2.334523 2.3455852-2.334523 1.2792443 0 2.3455853 1.0611468 2.3455853 2.334523 0 1.2736789-1.066341 2.3348257-2.3455853 2.3348257" fill="#000" mask="url(#b)"/></g></svg>

<?xml version="1.0" encoding="UTF-8"?>
<svg width="66px" height="66px" viewBox="0 0 66 66" version="1.1" xmlns="http://www.w3.org/2000/svg" xmlns:xlink="http://www.w3.org/1999/xlink">
    <!-- Generator: Sketch 50.2 (55047) - http://www.bohemiancoding.com/sketch -->
    <title>Group 12</title>
    <desc>Created with Sketch.</desc>
    <defs>
        <polygon id="path-1" points="3.04147465e-05 0.151376147 65.8479263 0.151376147 65.8479263 65.6971872 3.04147465e-05 65.6971872"></polygon>
        <polygon id="path-3" points="0 65.8486239 65.8479263 65.8486239 65.8479263 0.302752294 0 0.302752294"></polygon>
    </defs>
    <g id="Future-Project-Desktop" stroke="none" stroke-width="1" fill="none" fill-rule="evenodd">
        <g id="Future-Schools" transform="translate(-688.000000, -1702.000000)">
            <g id="future-schools/locations" transform="translate(1.000000, 1523.000000)">
                <g id="Group-12" transform="translate(687.000000, 179.000000)">
                    <path d="M63.4958627,34.4928716 C63.4958627,51.5196606 49.6294756,65.3227431 32.5242221,65.3227431 C15.4189687,65.3227431 1.55227742,51.5196606 1.55227742,34.4928716 C1.55227742,17.4660826 15.4189687,3.663 32.5242221,3.663 C49.6294756,3.663 63.4958627,17.4660826 63.4958627,34.4928716" id="Fill-1" fill="#5CD8FF"></path>
                    <g id="Group-5" transform="translate(0.000000, 0.151376)">
                        <mask id="mask-2" fill="white">
                            <use xlink:href="#path-1"></use>
                        </mask>
                        <g id="Clip-4"></g>
                        <path d="M32.9239935,64.0320495 C15.6919106,64.0320495 1.67284147,50.0769853 1.67284147,32.9242514 C1.67284147,15.7715174 15.6919106,1.81645321 32.9239935,1.81645321 C50.1557724,1.81645321 64.1751456,15.7715174 64.1751456,32.9242514 C64.1751456,50.0769853 50.1557724,64.0320495 32.9239935,64.0320495 M32.9239935,0.151315596 C14.7697355,0.151315596 3.04147465e-05,14.8532697 3.04147465e-05,32.9242514 C3.04147465e-05,50.995233 14.7697355,65.6971872 32.9239935,65.6971872 C51.0782516,65.6971872 65.8479567,50.995233 65.8479567,32.9242514 C65.8479567,14.8532697 51.0782516,0.151315596 32.9239935,0.151315596" id="Fill-3" fill="#000000" mask="url(#mask-2)"></path>
                    </g>
                    <path d="M33.228141,44.4288385 C27.0971364,44.4288385 22.1267585,39.4815633 22.1267585,33.3783798 C22.1267585,27.2754991 27.0971364,22.3279211 33.228141,22.3279211 C39.3591456,22.3279211 44.3295235,27.2754991 44.3295235,33.3783798 C44.3295235,39.4815633 39.3591456,44.4288385 33.228141,44.4288385 M33.3802147,9.61232477 C20.1099567,9.61232477 9.35256498,20.3206734 9.35256498,33.529756 C9.35256498,46.7391413 20.1099567,57.4471872 33.3802147,57.4471872 C46.6504728,57.4471872 57.4078645,46.7391413 57.4078645,33.529756 C57.4078645,20.3206734 46.6504728,9.61232477 33.3802147,9.61232477" id="Fill-6" fill="#FFFFFF"></path>
                    <mask id="mask-4" fill="white">
                        <use xlink:href="#path-3"></use>
                    </mask>
                    <g id="Clip-9"></g>
                    <polygon id="Fill-8" fill="#FFFFFF" mask="url(#mask-4)" points="20.6059908 45.0344037 45.5460829 45.0344037 45.5460829 20.2087156 20.6059908 20.2087156"></polygon>
                    <path d="M55.5108055,34.1352606 C55.5108055,33.7637835 55.2440682,33.4985725 54.8708793,33.4985725 C54.4979945,33.4985725 54.2315613,33.7637835 54.2315613,34.1352606 C54.2315613,45.9680312 44.5830912,55.5722422 32.6957917,55.5722422 C32.3229069,55.5722422 32.0561696,55.8374532 32.0561696,56.2089303 C32.0561696,56.5804073 32.3229069,56.8456183 32.6957917,56.8456183 C45.2762433,56.8456183 55.5108055,46.6577009 55.5108055,34.1352606 M32.6957917,43.6332055 C37.9730544,43.6332055 42.237506,39.3883156 42.237506,34.1352606 C42.237506,28.8822055 37.9730544,24.6373156 32.6957917,24.6373156 C27.418529,24.6373156 23.1540774,28.8822055 23.1540774,34.1352606 C23.1540774,39.3883156 27.418529,43.6332055 32.6957917,43.6332055 M20.6488147,34.1352606 C20.6488147,27.5025633 26.032529,22.143545 32.6957917,22.143545 C33.0689806,22.143545 33.335718,21.8780312 33.335718,21.5068569 C33.335718,21.1353798 33.0689806,20.8701688 32.6957917,20.8701688 C25.3396811,20.8701688 19.3692664,26.8128936 19.3692664,34.1352606 C19.3692664,34.5067376 19.6360037,34.7722514 20.0088885,34.7722514 C20.3288516,34.7722514 20.6488147,34.5067376 20.6488147,34.1352606 M17.5036258,34.1352606 C17.5036258,25.8047284 24.32687,19.0127835 32.6957917,19.0127835 C33.0689806,19.0127835 33.335718,18.7475725 33.335718,18.3760954 C33.335718,18.0046183 33.0689806,17.7394073 32.6957917,17.7394073 C23.5807963,17.7394073 16.2243816,25.1150587 16.2243816,34.1352606 C16.2243816,34.5067376 16.4908147,34.7722514 16.8640037,34.7722514 C17.1839668,34.7722514 17.5036258,34.5067376 17.5036258,34.1352606 M32.6957917,15.8290404 C33.0689806,15.8290404 33.335718,15.5638294 33.335718,15.1923523 C33.335718,14.821178 33.0689806,14.5556642 32.6957917,14.5556642 C21.8748332,14.5556642 13.0791926,23.3109578 13.0791926,34.0822789 C13.0791926,34.453756 13.34593,34.718967 13.7191189,34.718967 C14.0920037,34.718967 14.358741,34.453756 14.358741,34.0822789 C14.3052111,24.0536092 22.5679853,15.8290404 32.6957917,15.8290404 M11.1603263,34.1352606 C11.1603263,22.3027927 20.8084922,12.6985817 32.6957917,12.6985817 C33.0689806,12.6985817 33.335718,12.4330679 33.335718,12.0618936 C33.335718,11.6904165 33.0689806,11.4252055 32.6957917,11.4252055 C20.1156442,11.4252055 9.88108203,21.6128202 9.88108203,34.1352606 C9.88108203,34.5067376 10.1475152,34.7722514 10.5207041,34.7722514 C10.8938931,34.7722514 11.1603263,34.5067376 11.1603263,34.1352606 M44.7430728,34.1352606 C44.7430728,40.7679578 39.3593585,46.1272789 32.6957917,46.1272789 C32.3229069,46.1272789 32.0561696,46.3924899 32.0561696,46.763967 C32.0561696,47.1351413 32.3229069,47.400655 32.6957917,47.400655 C40.0522065,47.400655 46.0223171,41.4579303 46.0223171,34.1352606 C46.0223171,33.7637835 45.7558839,33.4985725 45.3826949,33.4985725 C45.0627318,33.4985725 44.7430728,33.7637835 44.7430728,34.1352606 M47.8882618,34.1352606 C47.8882618,42.4660954 41.0650175,49.2577376 32.6957917,49.2577376 C32.3229069,49.2577376 32.0561696,49.5232514 32.0561696,49.8944257 C32.0561696,50.2659028 32.3229069,50.5314165 32.6957917,50.5314165 C41.8110912,50.5314165 49.167506,43.1557651 49.167506,34.1352606 C49.167506,33.7637835 48.9010728,33.4985725 48.5275797,33.4985725 C48.2079207,33.4985725 47.8882618,33.7637835 47.8882618,34.1352606 M32.6957917,52.4414807 C32.3229069,52.4414807 32.0561696,52.7066917 32.0561696,53.0781688 C32.0561696,53.4496459 32.3229069,53.7148569 32.6957917,53.7148569 C43.5167502,53.7148569 52.3123908,44.9598661 52.3123908,34.1882422 C52.3123908,33.8170679 52.0456535,33.5515541 51.6727687,33.5515541 C51.2995797,33.5515541 51.0328424,33.8170679 51.0328424,34.1882422 C51.0863724,44.2169119 42.8239023,52.4414807 32.6957917,52.4414807 M58.0160682,34.1352606 C58.0160682,48.0373431 46.6619392,59.339389 32.6957917,59.339389 C18.7296442,59.339389 7.37551521,48.0373431 7.37551521,34.1352606 C7.37551521,20.233178 18.7296442,8.93113211 32.6957917,8.93113211 C46.6619392,8.93113211 58.0160682,20.233178 58.0160682,34.1352606 M32.6957917,36.4700862 C31.4165475,36.4700862 30.3502065,35.4089394 30.3502065,34.1352606 C30.3502065,32.8618844 31.4165475,31.8007376 32.6957917,31.8007376 C33.9750359,31.8007376 35.041377,32.8618844 35.041377,34.1352606 C35.041377,35.4089394 33.9750359,36.4700862 32.6957917,36.4700862" id="Fill-10" fill="#FFFFFF" mask="url(#mask-4)"></path>
                    <path d="M56.1191005,33.529756 C56.1191005,33.1582789 55.8523631,32.8930679 55.4791742,32.8930679 C55.1062894,32.8930679 54.8398562,33.1582789 54.8398562,33.529756 C54.8398562,45.3625266 45.1913862,54.9667376 33.3040866,54.9667376 C32.9312018,54.9667376 32.6644645,55.2319486 32.6644645,55.6034257 C32.6644645,55.9749028 32.9312018,56.2401138 33.3040866,56.2401138 C45.8845382,56.2401138 56.1191005,46.0521963 56.1191005,33.529756 M33.3040866,43.0277009 C38.5813493,43.0277009 42.8458009,38.782811 42.8458009,33.529756 C42.8458009,28.2767009 38.5813493,24.031811 33.3040866,24.031811 C28.026824,24.031811 23.7623724,28.2767009 23.7623724,33.529756 C23.7623724,38.782811 28.026824,43.0277009 33.3040866,43.0277009 M21.2571097,33.529756 C21.2571097,26.8970587 26.640824,21.5380404 33.3040866,21.5380404 C33.6772756,21.5380404 33.9440129,21.2725266 33.9440129,20.9013523 C33.9440129,20.5298752 33.6772756,20.2646642 33.3040866,20.2646642 C25.947976,20.2646642 19.9778654,26.207389 19.9778654,33.529756 C19.9778654,33.901233 20.2442986,34.1667468 20.6171834,34.1667468 C20.9371465,34.1667468 21.2571097,33.901233 21.2571097,33.529756 M18.1119207,33.529756 C18.1119207,25.1992239 24.935165,18.4072789 33.3040866,18.4072789 C33.6772756,18.4072789 33.9440129,18.1420679 33.9440129,17.7705908 C33.9440129,17.3991138 33.6772756,17.1339028 33.3040866,17.1339028 C24.1890912,17.1339028 16.8326765,24.5095541 16.8326765,33.529756 C16.8326765,33.901233 17.0991097,34.1667468 17.4722986,34.1667468 C17.7922618,34.1667468 18.1119207,33.901233 18.1119207,33.529756 M33.3040866,15.2235358 C33.6772756,15.2235358 33.9440129,14.9583248 33.9440129,14.5868477 C33.9440129,14.2156734 33.6772756,13.9501596 33.3040866,13.9501596 C22.4831281,13.9501596 13.6874876,22.7054532 13.6874876,33.4767743 C13.6874876,33.8482514 13.9542249,34.1134624 14.3274138,34.1134624 C14.7002986,34.1134624 14.9670359,33.8482514 14.9670359,33.4767743 C14.913506,23.4481046 23.1762802,15.2235358 33.3040866,15.2235358 M11.7686212,33.529756 C11.7686212,21.6972881 21.4167871,12.0930771 33.3040866,12.0930771 C33.6772756,12.0930771 33.9440129,11.8275633 33.9440129,11.456389 C33.9440129,11.0849119 33.6772756,10.8197009 33.3040866,10.8197009 C20.7239392,10.8197009 10.489377,21.0073156 10.489377,33.529756 C10.489377,33.901233 10.7558101,34.1667468 11.1289991,34.1667468 C11.502188,34.1667468 11.7686212,33.901233 11.7686212,33.529756 M45.3513677,33.529756 C45.3513677,40.1624532 39.9676535,45.5217743 33.3040866,45.5217743 C32.9312018,45.5217743 32.6644645,45.7869853 32.6644645,46.1584624 C32.6644645,46.5296367 32.9312018,46.7951505 33.3040866,46.7951505 C40.6605014,46.7951505 46.630612,40.8524257 46.630612,33.529756 C46.630612,33.1582789 46.3641788,32.8930679 45.9909899,32.8930679 C45.6710267,32.8930679 45.3513677,33.1582789 45.3513677,33.529756 M48.4965567,33.529756 C48.4965567,41.8605908 41.6733124,48.652233 33.3040866,48.652233 C32.9312018,48.652233 32.6644645,48.9177468 32.6644645,49.2889211 C32.6644645,49.6603982 32.9312018,49.9259119 33.3040866,49.9259119 C42.4193862,49.9259119 49.7758009,42.5502606 49.7758009,33.529756 C49.7758009,33.1582789 49.5093677,32.8930679 49.1358747,32.8930679 C48.8162157,32.8930679 48.4965567,33.1582789 48.4965567,33.529756 M33.3040866,51.8359761 C32.9312018,51.8359761 32.6644645,52.1011872 32.6644645,52.4726642 C32.6644645,52.8441413 32.9312018,53.1093523 33.3040866,53.1093523 C44.1250452,53.1093523 52.9206857,44.3543615 52.9206857,33.5827376 C52.9206857,33.2115633 52.6539484,32.9460495 52.2810636,32.9460495 C51.9078747,32.9460495 51.6411373,33.2115633 51.6411373,33.5827376 C51.6946673,43.6114073 43.4321972,51.8359761 33.3040866,51.8359761 M58.6243631,33.529756 C58.6243631,47.4318385 47.2702341,58.7338844 33.3040866,58.7338844 C19.3379392,58.7338844 7.98381014,47.4318385 7.98381014,33.529756 C7.98381014,19.6276734 19.3379392,8.32562752 33.3040866,8.32562752 C47.2702341,8.32562752 58.6243631,19.6276734 58.6243631,33.529756 M33.3040866,35.8645817 C32.0248424,35.8645817 30.9585014,34.8034349 30.9585014,33.529756 C30.9585014,32.2563798 32.0248424,31.195233 33.3040866,31.195233 C34.5833309,31.195233 35.6496719,32.2563798 35.6496719,33.529756 C35.6496719,34.8034349 34.5833309,35.8645817 33.3040866,35.8645817" id="Fill-11" fill="#000000" mask="url(#mask-4)"></path>
                </g>
            </g>
        </g>
    </g>
</svg>
